X: 13515
T: Flowers Of Red Hill, The
R: reel
M: 4/4
K: Adorian
|:eA A2 eAfA|eA A2 eAdA|eA A2 e2 af|gedB GA (3Bcd:|
ea a2 bgag|eaag ed (3Bcd|ea a2 bgag|edef gd (3Bcd|
ea a2 bgag|eaaf g3a|bg g2 aged|eaag ed (3Bcd||

